scalable/actions/package-installed-locked.svg

<svg xmlns="http://www.w3.org/2000/svg" width="24" height="24">
  <path fill="#447821" d="M4.9765625 3.0234375c-1.105 0-2 .895-2 2V19.023438c0 1.105.895 2 2 2H18.976562c1.105001 0 2-.895 2-2V5.0234375c0-1.105-.894999-2-2-2H4.9765625zm6.9999995 3c1.577002 0 2.855469 1.2804219 2.855469 2.8574219v1.1425786h.572266c.6315 0 1.142578.513031 1.142578 1.144531v5.71289c0 .6315-.511078 1.144532-1.142578 1.144532H8.546875c-.6315 0-1.1425781-.513032-1.1425781-1.144532v-5.71289c0-.6315.5110781-1.144531 1.1425781-1.144531h.5722656V8.8808594c0-1.577 1.2804224-2.8574219 2.8574214-2.8574219zm0 1.0859375c-.976999 0-1.771484.7944844-1.771484 1.7714844v1.1425786h3.542969V8.8808594c0-.977-.794484-1.7714844-1.771485-1.7714844z"/>
</svg>

<?xml version="1.0" encoding="UTF-8" standalone="no"?>
<svg
   xmlns:dc="http://purl.org/dc/elements/1.1/"
   xmlns:cc="http://creativecommons.org/ns#"
   xmlns:rdf="http://www.w3.org/1999/02/22-rdf-syntax-ns#"
   xmlns:svg="http://www.w3.org/2000/svg"
   xmlns="http://www.w3.org/2000/svg"
   xmlns:sodipodi="http://sodipodi.sourceforge.net/DTD/sodipodi-0.dtd"
   xmlns:inkscape="http://www.inkscape.org/namespaces/inkscape"
   viewBox="0 0 24 24"
   version="1.1"
   id="svg4"
   sodipodi:docname="package-installed-locked.svg"
   inkscape:version="0.92.3 (2405546, 2018-03-11)"
   width="24"
   height="24"
   style="fill:#000000">
  <metadata
     id="metadata10">
    <rdf:RDF>
      <cc:Work
         rdf:about="">
        <dc:format>image/svg+xml</dc:format>
        <dc:type
           rdf:resource="http://purl.org/dc/dcmitype/StillImage" />
        <dc:title></dc:title>
      </cc:Work>
    </rdf:RDF>
  </metadata>
  <defs
     id="defs8" />
  <sodipodi:namedview
     pagecolor="#ffffff"
     bordercolor="#666666"
     borderopacity="1"
     objecttolerance="10"
     gridtolerance="10"
     guidetolerance="10"
     inkscape:pageopacity="0"
     inkscape:pageshadow="2"
     inkscape:window-width="1366"
     inkscape:window-height="690"
     id="namedview6"
     showgrid="false"
     inkscape:zoom="20.625"
     inkscape:cx="11.151515"
     inkscape:cy="9.4574843"
     inkscape:window-x="0"
     inkscape:window-y="28"
     inkscape:window-maximized="1"
     inkscape:current-layer="svg4"
     showguides="true"
     inkscape:guide-bbox="true" />
  <path
     style="fill:#447821;stroke-width:0.5;fill-opacity:1"
     d="M 4.9765625 3.0234375 C 3.8715625 3.0234375 2.9765625 3.9184375 2.9765625 5.0234375 L 2.9765625 19.023438 C 2.9765625 20.128438 3.8715625 21.023438 4.9765625 21.023438 L 18.976562 21.023438 C 20.081563 21.023438 20.976562 20.128438 20.976562 19.023438 L 20.976562 5.0234375 C 20.976562 3.9184375 20.081563 3.0234375 18.976562 3.0234375 L 4.9765625 3.0234375 z M 11.976562 6.0234375 C 13.553564 6.0234375 14.832031 7.3038594 14.832031 8.8808594 L 14.832031 10.023438 L 15.404297 10.023438 C 16.035797 10.023438 16.546875 10.536469 16.546875 11.167969 L 16.546875 16.880859 C 16.546875 17.512359 16.035797 18.025391 15.404297 18.025391 L 8.546875 18.025391 C 7.915375 18.025391 7.4042969 17.512359 7.4042969 16.880859 L 7.4042969 11.167969 C 7.4042969 10.536469 7.915375 10.023438 8.546875 10.023438 L 9.1191406 10.023438 L 9.1191406 8.8808594 C 9.1191406 7.3038594 10.399563 6.0234375 11.976562 6.0234375 z M 11.976562 7.109375 C 10.999563 7.109375 10.205078 7.9038594 10.205078 8.8808594 L 10.205078 10.023438 L 13.748047 10.023438 L 13.748047 8.8808594 C 13.748047 7.9038594 12.953563 7.109375 11.976562 7.109375 z "
     id="path820" />
</svg>
